X:1
T:The Queen Of The Rushes
R:jig
M:6/8
L:1/8
K:Dmix
AG|:F2D DAF|G2E EDE|F2D DAF|GED DAG|
|F2D DAF|G2E EFG|ABA GEA|1 DED DAG:|2 DED D2B|]
|:c2A Bcd|ecA AGE|d2e fed|e^cA A2B|
|c2A Bcd|ecA AGE|FEF GEA|1 DED D2B:|2 DED DFG|]
|:ABA dAF|ABA dAF|GFG EFE|cBc EFG|
|ABA dAF|ABA dAG|FEF GEA|1 DED DFG:|2 DED DAG|]